X: 1
T: the Jimmy Harris Jig
C: Angus Fitchet
R: jig
Z: 2006 John Chambers <jc:trillian.mit.edu>
S: printed MS of unknown origin
M: 6/8
L: 1/8
K: F
B \
| "F"A2c cBA | "Gm"B2d G2f | "C7"e2c g2e | "F"fed "C7"c2B \
| "F"A2c cBA | "Gm"B2d G2F | "C7"E2d dcA | "F"F3 F2 :|
f \
| "C"e2f  gfe | "F"f2c "A"c2^c | "Bb" d2B fed | "F"c2A   A2c \
| "Bb"d2B B2d | "F"c2A    A2c  | "G7"=B2d GAB | "C"c3 "C7"c2 |]
c \
| "Bb"dBd     fed | "F"f2c c2A | "Bb"BAB "C7"dcB | "F"A2B c2c \
| "Bb"dBd "C7"gfe | "F"f2c A2F | "Gm"E2d "C7"dcA | "F"F3  F2 |]
